;---------------------------------------------------------------
#TITLE		Astaroth title (YM2612 version)
#GAME		Astaroth
#COMPOSER	Mad Max
#PROGRAMMER	mic
#OCTAVE-REV 	0
#TUNE
;---------------------------------------------------------------

#IFNDEF GEN
#ERROR "This track is for SEGA Genesis only."
#ENDIF

;---------------------------------------------------------------
; Drum volume macros
;---------------------------------------------------------------
@v2 = { 8 9 10 9 8 5 5 4 2 2 2 1 1 1 1 4 }
@v3 = { 13 8 5 4 6 1 2 1 4 }
@v4 = { 13 7 2 0 }
@v5 = { 14 14 13 12 12 9 9 7 5 4 3 2 1 1 0 }		
@v6 = { 12 12 8 8 8 4 4 0 2 }	


; Global tempo
ABCDEFGHIJ t150 EPOF MPOF

; Set up detuning and multipliers
EFGHJ OP1 D-3 MF2  OP2 D0 MF7  OP3 D1 MF4  OP4 D2 MF1
I     OP1 D1                    OP3 D-1 MF2

; Define some envelopes
@ADSR1 = {20 9 4 9 7}
@ADSR2 = {27 20 7 4 11}
@ADSR3 = {18 9 4 10 4}
@ADSR4 = {12 4 1 8 0}

; Define a modulator (LFO frequency, AM sensitivity, FM sensitivity)
@MOD0 = {6 2 2}
@MOD1 = {3 0 3}

;---------------------------------------------------------------
; Melody and echo
;---------------------------------------------------------------
E l8 @5 FB2 OP2 MF3 OP0 v101 ADSR1	; OP0 selects all operators
F l8 @5 FB3 OP2 MF3 OP0 v97 ADSR3 MOD0 AM1 
F r8
EF ( L
 o5
 <g>ce<g>cf<g>cg<g>cf<g>ced
 <g>ce<g>cd<g>ce<g>cf<g>ced
 <ea>c<ea>d<ea>c<ea>d<ea>c<b
 ea>c<ea>d<ea>c<eabeaag
 cfacfbcf>c<cfbcf>c<b
 cfacfbcf>c<cf>d<cf>c<b
 dgbdg>c<dg>d<dg>c<dgbd
 dg>d<dg>e<dg>f<dg>g<dg>g<d
)


;---------------------------------------------------------------
; Bass
;---------------------------------------------------------------
G ( l8 @2 FB4 OP0 v106 ADSR1 @q2 D-1 MF2 OP3 D1 MF1
 [r1]16
 L
 o4
 ccccrcccccccrr<ag>ccccrcccccccrr<ag
 aaaaraaaaaaarr>ga<aaaaraaaaaaarr>ga
 ffffrfffffffrr dc ffffrfffffffrr dc
 ggggrgggggggrr>fg<ggggrgggggggrr>fg
)


;---------------------------------------------------------------
; Organ
;---------------------------------------------------------------
H ( l1 @7 FB7 o5 OP0 v96 ADSR4 
 L
 g&g g&g
 e&e e&e
 c&c c&c
 d&d d&d
)


;---------------------------------------------------------------
; Bass drum
;---------------------------------------------------------------
I ( o3 l8 @4 FB4 OP0 v117 RS1 ADSR2
 [r1]16
 L
 [d r frr f drd rrdrf dd]7
  d rfrrf rrfrrf rf dd
)


;---------------------------------------------------------------
; PSG drum
;---------------------------------------------------------------
D ( o7 l8 @0 
 [r1]16
 L
 [@v3 d r@v2frr@v6f @v3drd rrdr@v5f @v3dd]7
 @v3 d r@v2frrf rrfrrf rf @v3dd
)
