;---------------------------------------------------------------
#TITLE		Astaroth title (KSS version)
#GAME		Astaroth
#COMPOSER	Mad Max
#PROGRAMMER	mic
#OCTAVE-REV 	0
#TUNE
;---------------------------------------------------------------

#IFNDEF KSS
#ERROR "This track is for KSS only."
#ENDIF

;---------------------------------------------------------------
; Volume macros
;---------------------------------------------------------------
@v2 = { 8 9 10 9 8 5 5 4 2 2 2 1 1 1 1 4 }
@v3 = { 13 8 5 4 6 1 2 1 4 }
@v4 = { 13 7 2 0 }
@v5 = { 14'7 13'3 12'4 9 9 7 5 4 3 2 1 1 0 }		
@v6 = { 13 13 12 12 11 10 9 9 8 8 7 6 5 4 3 2 1 }	
@v7 = { 12 12 8'3 4 4 0 2 }
@v8 = { 14 14 13 12 12 9 9 7 5 4 3 2 1 1 0 }	
@v9 = { 15 12 0 }
@v10 = { 4:8 }


@WT0 = { ; Saw wave
-128 -120 -112 -104 -96 -88 -80 -72
-64 -56 -48 -40 -32 -24 -16 -8
0 8 16 24 32 40 48 56
64 72 80 88 96 104 112 120
}

@WT1 = { 
-96 -48 32 64 96 96 112 112
112 112 96 96 64 32 -48 -96
-96 -80 -48 -16 16 48 80 112
112 80 48 16 -16 -48 -80 -96
}

@WT2 = { ; Used as a kick drum
-112 112 -128 0 127 0 -120 0
-112 0 112 0 -96 0 96 0
-88 0 88 0 -80 0 80 0
-64 0 64 0 -48 0 32 0
}


; Global tempo
EFGHIJKL t150 


\1 { t150 l8
 o4
 <g>ce<g>cf<g>cg<g>cf<g>ced
 <g>ce<g>cd<g>ce<g>cf<g>ced
 <ea>c<ea>d<ea>c<ea>d<ea>c<b
 ea>c<ea>d<ea>c<eabeaag
 cfacfbcf>c<cfbcf>c<b
 cfacfbcf>c<cf>d<cf>c<b
 dgbdg>c<dg>d<dg>c<dgbd
 dg>d<dg>e<dg>f<dg>g<dg>g<d
}


;---------------------------------------------------------------
; Melody and echo (SCC)
;---------------------------------------------------------------
HI l8 WT1  	
H @v5
I @v6 r8
HI L
HI \1()


;---------------------------------------------------------------
; Bass (SCC)
;---------------------------------------------------------------
L ( l8 WT0 @q2 v11 
 [r1]16
 L
 o3
 ccccrcccccccrr<ag>ccccrcccccccrr<ag
 aaaaraaaaaaarr>ga<aaaaraaaaaaarr>ga
 ffffrfffffffrr dc ffffrfffffffrr dc
 ggggrgggggggrr>fg<ggggrgggggggrr>fg
)


;---------------------------------------------------------------
; Snare drum (AY)
;---------------------------------------------------------------
E ( o5 l8 @2 v10 
 [r1]16
 L
 [@v3 d r@v2frr@v7f @v3drd rrdr@v8f @v3dd]7
 @v3 d r@v2frrf rrfrrf rf @v3dd
)


;---------------------------------------------------------------
; Kick drum (SCC)
;---------------------------------------------------------------
J ( o1 l8 WT2 @v9
 [r1]16
 L
 [d r frr f drd rrdrf dd]7
  d rfrrf rrfrrf rf dd
)


;---------------------------------------------------------------
; Organ (AY)
;---------------------------------------------------------------
G ( l1 @1 o4 @v10
 L
 g&g g&g
 e&e e&e
 c&c c&c
 d&d d&d
)



