#TITLE PC-Engine Panning Test
#PROGRAMMER mic

#INCLUDE "common.mml"

@CS0 = {|0xF0 0xE1 0xD2 0xC3 0xB4 0xA5 0x96 0x87
         0x78 0x69 0x5A 0x4B 0x3C 0x2D 0x1E 0x0F
         0x1E 0x2D 0x3C 0x4B 0x5A 0x69 0x78 0x87
         0x96 0xA5 0xB4 0xC3 0xD2 0xE1 } (EVERY-NOTE)

@CS1 = {|0xF0 0xE1 0xD2 0xC3 0xB4 0xA5 0x96 0x87
         0x78 0x69 0x5A 0x4B 0x3C 0x2D 0x1E 0x0F
         0x1E 0x2D 0x3C 0x4B 0x5A 0x69 0x78 0x87
         0x96 0xA5 0xB4 0xC3 0xD2 0xE1 } ' 2
         
B t134 o3 l4 v29 
B WT0
B L
B CS0 [cdef > cdef <]2
B CS1 [cdef > cdef <]2
B CSOF cdef > cdef <
